X:75
T:Drowsy Maggie 1
R:Reel
O:Ireland, Scotland
B:O'Neill's 1425
B:Lots o' books
S:O'Neill's 1425
Z:Transcription, chords:Mike Long
M:C|
L:1/8
K:D
"Em"E2(BE dEBE)|"Em"E2(BE "D"AFDF)|"Em"E2(BE dEBE)|[1 "G"(~BAB)c "D"dAFD:|[2 "G/C"(~BAB)c "D"dAFA|]
"D"d2(fd) "A"c2(ec)|"D"defg "A"afge|"D"d2(fd) "A"c2(ec)|"G"(~BAB)c dAFA|
"D"d2(fd) "A"c2(ec)|"D"defg "A"afge|"G"afge fdec|"A"(~BAB)c dAFD|]
P:Alt. B
"D"d2fd "A"cdec|"D"defd "A"faaf|"D"d2fd "A"cdec|"G"(~BAB)c dAFA|
"D"d2fd "A"cdec|"D"defd "A"faa2|"G"bgaf gfed|"A"(~BAB)c dAFD|]
